assets/2023/icons/tailwind.svg

<svg width="16" height="16" viewBox="0 0 16 16" fill="none" xmlns="http://www.w3.org/2000/svg">
<path fill-rule="evenodd" clip-rule="evenodd" d="M8 4C6.13333 4 4.96667 4.93986 4.5 6.81958C5.2 5.87972 6.01667 5.52727 6.95 5.76224C7.48252 5.89617 7.86311 6.28543 8.28441 6.71593C8.97067 7.41744 9.76504 8.22937 11.5 8.22937C13.3667 8.22937 14.5333 7.28951 15 5.40979C14.3 6.34965 13.4833 6.7021 12.55 6.46713C12.0175 6.3332 11.6369 5.94394 11.2156 5.51344C10.5293 4.81193 9.73496 4 8 4ZM4.5 8.22937C2.63333 8.22937 1.46667 9.16923 1 11.049C1.7 10.1091 2.51667 9.75664 3.45 9.99161C3.98252 10.1258 4.36311 10.5148 4.78441 10.9453C5.47067 11.6468 6.26504 12.4587 8 12.4587C9.86667 12.4587 11.0333 11.5189 11.5 9.63916C10.8 10.579 9.98333 10.9315 9.05 10.6965C8.51748 10.5626 8.13689 10.1733 7.71559 9.74281C7.02933 9.04131 6.23496 8.22937 4.5 8.22937Z" fill="#14B4C6"/>
</svg>

<svg xmlns="http://www.w3.org/2000/svg" width="16" height="16" fill="none" viewBox="0 0 16 16"><path fill="#14B4C6" fill-rule="evenodd" d="M8 4Q5.2 4 4.5 6.82q1.05-1.41 2.45-1.058c.533.134.913.523 1.334.954.687.701 1.481 1.513 3.216 1.513q2.8 0 3.5-2.82-1.05 1.41-2.45 1.058c-.533-.134-.913-.523-1.334-.954C10.529 4.812 9.735 4 8 4M4.5 8.23q-2.8 0-3.5 2.819 1.05-1.41 2.45-1.057c.533.134.913.523 1.334.953.687.702 1.481 1.514 3.216 1.514q2.8 0 3.5-2.82-1.05 1.41-2.45 1.058c-.533-.134-.913-.524-1.334-.954C7.029 9.04 6.235 8.229 4.5 8.229" clip-rule="evenodd"/></svg>
